packages/components/src/telekom/icons/weather/moon-rain/selected.svg

<?xml version="1.0" encoding="UTF-8"?>
<svg width="24px" height="24px" viewBox="0 0 24 24" version="1.1" xmlns="http://www.w3.org/2000/svg" xmlns:xlink="http://www.w3.org/1999/xlink">
    <title>icon/weather/moon-rain/selected</title>
    <g id="icon/weather/moon-rain/selected" stroke="none" stroke-width="1" fill="none" fill-rule="evenodd">
        <path d="M8.9656,18.1956 C9.0517875,18.1164125 9.18276406,18.1712094 9.20042812,18.2742406 L9.2006,18.3211 L8.7211,21.3846 C8.6166,22.0536 7.9891,22.5116 7.3191,22.4066 C6.34543333,22.2547042 5.95495243,21.0879733 6.59124583,20.3797549 L6.6801,20.2901 L8.9656,18.1956 Z M7.7156,14.0361 C7.8017875,13.95735 7.93276406,14.0118187 7.95042812,14.1150961 L7.9506,14.1621 L7.4211,17.5486 L7.4071,17.6001 C7.2686,18.3026 6.6021,18.7781 5.8871,18.6666 C5.0271,18.5316 4.5861,17.6741 4.8141,16.9406 C4.8673,16.7698 4.95506,16.60508 5.084036,16.458216 L5.1886,16.3516 L7.7156,14.0361 Z M12.6496,12.7316 C12.7357875,12.6524125 12.8667641,12.7072094 12.8844281,12.8105756 L12.8846,12.8576 L12.2691,16.7931 C12.1376,17.6316 11.3516,18.2046 10.5131,18.0736 C9.28652857,17.8817071 8.79872054,16.403836 9.6167995,15.5184433 L9.7131,15.4226 L12.6496,12.7316 Z M10.1066,5.9631 C12.4606,5.9631 14.5341,7.4301 15.3396,9.6371 C16.7206,10.3646 17.6006,11.8116 17.6006,13.3901 C17.6006,15.6553121 15.8252905,17.5110183 13.6018226,17.6214052 L13.3921,17.6266 L13.2601,17.6266 C13.324975,17.47285 13.3816937,17.3143187 13.4211859,17.1478422 L13.4546,16.9786 L14.0701,13.0431 C14.1301,12.6531 14.0186,12.2601 13.7641,11.9636 C13.5081,11.6651 13.1366,11.4941 12.7441,11.4941 C12.4561,11.4941 12.1783857,11.5863041 11.9484265,11.7565431 L11.8376,11.8481 L9.1401,14.3201 C9.1916,13.9421 9.0801,13.5601 8.8316,13.2696 C8.5756,12.9701 8.2036,12.7986 7.8101,12.7986 C7.52295714,12.7986 7.2461,12.8904367 7.01636822,13.0596262 L6.9056,13.1506 L4.3776,15.4666 C4.0466,15.7706 3.8011,16.1571 3.6681,16.5846 C3.5691,16.9026 3.5386,17.2326 3.5671,17.5576 C1.7701,17.2351 0.4006,15.6586 0.4006,13.7591 C0.4006,12.3596 1.1556,11.0756 2.3526,10.3936 C2.4546,8.5716 3.9601,7.1206 5.7956,7.1206 C6.0661,7.1206 6.3351,7.1536 6.6011,7.2186 C7.5941,6.4066 8.8276,5.9631 10.1066,5.9631 Z M18.1771,0.5051 C19.0666,0.2716 19.9621,0.2756 20.7981,0.4746 C18.8731,1.4006 17.8096,3.5861 18.3726,5.7286 C19.0046,8.1351 21.4486,9.5801 23.8551,8.9901 C23.1501,9.9236 22.1411,10.6386 20.9216,10.9586 C20.0096,11.1986 19.0911,11.1886 18.2371,10.9741 C17.8056,10.0951 17.1466,9.3336 16.2986,8.7901 C15.8136,7.7026 15.0731,6.7921 14.1616,6.1141 C13.9791,3.5706 15.6206,1.1766 18.1771,0.5051 Z" id="Shape" fill="#262626"></path>
    </g>
</svg>

<svg width="24" height="24" xmlns="http://www.w3.org/2000/svg"><path d="M8.966 18.196a.142.142 0 01.234.078v.047l-.479 3.064a1.226 1.226 0 01-1.402 1.022c-.974-.152-1.364-1.319-.728-2.027l.09-.09 2.285-2.094zm-1.25-4.16a.142.142 0 01.234.08v.046l-.529 3.387-.014.051a1.34 1.34 0 11-2.593-.66c.053-.17.141-.335.27-.482l.105-.106 2.527-2.316zm4.934-1.304a.142.142 0 01.234.079v.047l-.615 3.935a1.537 1.537 0 01-1.756 1.28c-1.226-.191-1.714-1.67-.896-2.555l.096-.095 2.937-2.691zm-2.543-6.769a5.56 5.56 0 015.233 3.674 4.25 4.25 0 012.26 3.753c0 2.265-1.775 4.121-3.998 4.231l-.21.006h-.132a3.03 3.03 0 00.161-.48l.034-.168.615-3.936a1.34 1.34 0 00-2.122-1.286l-.11.091L9.14 14.32a1.342 1.342 0 00-2.124-1.26l-.11.09-2.528 2.317c-.331.304-.577.69-.71 1.118-.099.318-.13.648-.1.973A3.859 3.859 0 01.4 13.759c0-1.4.755-2.683 1.952-3.365C2.455 8.572 3.96 7.12 5.796 7.12c.27 0 .54.033.805.098a5.53 5.53 0 013.506-1.256zm8.07-5.458a5.383 5.383 0 012.621-.03 4.548 4.548 0 003.057 8.515 5.373 5.373 0 01-2.933 1.969c-.912.24-1.83.23-2.685.015A5.421 5.421 0 0016.3 8.79a6.749 6.749 0 00-2.137-2.676A5.404 5.404 0 0118.177.505z" fill="#000" fill-rule="evenodd"/></svg>
